X: 24417
T: Low C Tune
R: jig
M: 6/8
K: Gmajor
|:DED BcB|AGA BGE|CDE AGA|BdB AGE|
DEDB3|AGA BGE|CDE AGA|BGG G3:|
|:B2d dBd|g3 edB|c2e ece|g3 fed|
Bdd dBd|g3 edB|cde ABc|DFA G3:|

